img/icon/instagram.svg

<svg width="40" height="41" viewBox="0 0 40 41" fill="none" xmlns="http://www.w3.org/2000/svg">
<g clip-path="url(#clip0)">
<rect opacity="0.1" y="0.404175" width="40" height="40" rx="20" fill="#5A7184"/>
<path d="M20.3333 17.1438C18.3333 17.1438 16.7395 18.7688 16.7395 20.7375C16.7395 22.7375 18.3333 24.3313 20.3333 24.3313C22.302 24.3313 23.927 22.7375 23.927 20.7375C23.927 18.7688 22.302 17.1438 20.3333 17.1438ZM20.3333 23.0813C19.052 23.0813 17.9895 22.05 17.9895 20.7375C17.9895 19.4563 19.0208 18.425 20.3333 18.425C21.6145 18.425 22.6458 19.4563 22.6458 20.7375C22.6458 22.05 21.6145 23.0813 20.3333 23.0813ZM24.8958 17.0188C24.8958 16.55 24.5208 16.175 24.052 16.175C23.5833 16.175 23.2083 16.55 23.2083 17.0188C23.2083 17.4875 23.5833 17.8625 24.052 17.8625C24.5208 17.8625 24.8958 17.4875 24.8958 17.0188ZM27.2708 17.8625C27.2083 16.7375 26.9583 15.7375 26.1458 14.925C25.3333 14.1125 24.3333 13.8625 23.2083 13.8C22.052 13.7375 18.5833 13.7375 17.427 13.8C16.302 13.8625 15.3333 14.1125 14.4895 14.925C13.677 15.7375 13.427 16.7375 13.3645 17.8625C13.302 19.0188 13.302 22.4875 13.3645 23.6438C13.427 24.7688 13.677 25.7375 14.4895 26.5813C15.3333 27.3938 16.302 27.6438 17.427 27.7063C18.5833 27.7688 22.052 27.7688 23.2083 27.7063C24.3333 27.6438 25.3333 27.3938 26.1458 26.5813C26.9583 25.7375 27.2083 24.7688 27.2708 23.6438C27.3333 22.4875 27.3333 19.0188 27.2708 17.8625ZM25.7708 24.8625C25.552 25.4875 25.052 25.9563 24.4583 26.2063C23.5208 26.5813 21.3333 26.4875 20.3333 26.4875C19.302 26.4875 17.1145 26.5813 16.2083 26.2063C15.5833 25.9563 15.1145 25.4875 14.8645 24.8625C14.4895 23.9563 14.5833 21.7688 14.5833 20.7375C14.5833 19.7375 14.4895 17.55 14.8645 16.6125C15.1145 16.0188 15.5833 15.55 16.2083 15.3C17.1145 14.925 19.302 15.0188 20.3333 15.0188C21.3333 15.0188 23.5208 14.925 24.4583 15.3C25.052 15.5188 25.5208 16.0188 25.7708 16.6125C26.1458 17.55 26.052 19.7375 26.052 20.7375C26.052 21.7688 26.1458 23.9563 25.7708 24.8625Z" fill="#5A7184"/>
</g>
<defs>
<clipPath id="clip0">
<rect width="40" height="40.0599" fill="white" transform="translate(0 0.404175)"/>
</clipPath>
</defs>
</svg>

<svg xmlns="http://www.w3.org/2000/svg" fill="none" viewBox="0 0 40 41"><g fill="#5A7184" clip-path="url(#clip0)"><rect width="40" height="40" y=".404" opacity=".1" rx="20"/><path d="M20.333 17.144c-2 0-3.593 1.625-3.593 3.594 0 2 1.593 3.593 3.593 3.593a3.594 3.594 0 0 0 3.594-3.593c0-1.97-1.625-3.594-3.594-3.594zm0 5.937a2.34 2.34 0 0 1-2.343-2.343c0-1.282 1.03-2.313 2.343-2.313a2.307 2.307 0 0 1 2.313 2.313c0 1.312-1.032 2.343-2.313 2.343zm4.563-6.062a.84.84 0 0 0-.844-.844.84.84 0 0 0-.844.844.84.84 0 0 0 .844.844.84.84 0 0 0 .844-.844zm2.375.844c-.063-1.125-.313-2.125-1.125-2.938-.813-.813-1.813-1.063-2.938-1.125-1.156-.063-4.625-.063-5.781 0-1.125.063-2.094.313-2.938 1.125-.812.813-1.062 1.813-1.125 2.938-.062 1.156-.062 4.625 0 5.78.063 1.126.313 2.095 1.125 2.938.844.813 1.813 1.063 2.938 1.125 1.156.063 4.625.063 5.781 0 1.125-.062 2.125-.312 2.938-1.125.812-.843 1.062-1.812 1.125-2.937.062-1.156.062-4.625 0-5.781zm-1.5 7c-.219.625-.719 1.093-1.313 1.343-.937.375-3.125.282-4.125.282-1.031 0-3.218.093-4.125-.282a2.37 2.37 0 0 1-1.343-1.343c-.376-.907-.282-3.094-.282-4.125 0-1-.094-3.188.281-4.125a2.41 2.41 0 0 1 1.344-1.313c.907-.375 3.094-.281 4.125-.281 1 0 3.188-.094 4.125.281.594.219 1.063.719 1.313 1.313.375.937.281 3.125.281 4.125 0 1.03.094 3.218-.281 4.125z"/></g><defs><clipPath id="clip0"><path fill="#fff" d="M0 0h40v40.06H0z" transform="translate(0 .404)"/></clipPath></defs></svg>
